public/img/old-svg/paw.svg

<svg width="13" height="13" viewBox="0 0 13 13" fill="none" xmlns="http://www.w3.org/2000/svg">
<g clip-path="url(#clip0)">
<path d="M9.61351 7.38862C8.73886 6.33257 7.6333 5.75098 6.50042 5.75098C5.36754 5.75098 4.26196 6.33257 3.38735 7.38862C2.60118 8.33785 2.13184 9.53415 2.13184 10.5887C2.13184 11.101 2.28845 11.4912 2.5973 11.7485C2.90214 12.0026 3.3046 12.0885 3.75361 12.0885C4.23139 12.0885 4.7619 11.9912 5.28314 11.8955C5.73862 11.812 6.16884 11.7331 6.50044 11.7331C6.78665 11.7331 7.19018 11.808 7.61733 11.8873C8.61561 12.0726 9.74712 12.2826 10.4007 11.7392C10.7115 11.4808 10.869 11.0937 10.869 10.5887C10.8691 9.53415 10.3997 8.33785 9.61351 7.38862Z" fill="#EC824A"/>
<path d="M9.70285 1.65404C9.38282 1.18221 8.92457 0.911621 8.44558 0.911621C7.96656 0.911621 7.50833 1.18223 7.18831 1.65404C6.89434 2.08749 6.73242 2.65669 6.73242 3.25683C6.73242 3.85696 6.89431 4.42617 7.18831 4.85961C7.50833 5.33142 7.96658 5.60203 8.44558 5.60203C8.9246 5.60203 9.38282 5.33142 9.70285 4.85961C9.99682 4.42617 10.1587 3.85696 10.1587 3.25683C10.1587 2.65669 9.99684 2.08746 9.70285 1.65404Z" fill="#EC824A"/>
<path d="M5.81222 1.65404C5.4922 1.18221 5.03397 0.911621 4.55495 0.911621C4.07593 0.911621 3.61768 1.18223 3.29769 1.65404C3.00371 2.08749 2.8418 2.65669 2.8418 3.25683C2.8418 3.85696 3.00369 4.42617 3.29769 4.85961C3.61771 5.33144 4.07593 5.60206 4.55495 5.60206C5.03397 5.60206 5.4922 5.33144 5.81222 4.85961C6.10619 4.42617 6.26811 3.85698 6.26811 3.25683C6.26808 2.65669 6.10619 2.08746 5.81222 1.65404Z" fill="#EC824A"/>
<path d="M12.9242 5.33568C12.7952 4.89683 12.5187 4.57795 12.1456 4.43782C11.8454 4.32506 11.5065 4.34418 11.1914 4.49167C10.7571 4.6949 10.4021 5.11456 10.2175 5.64301C10.0666 6.07486 10.0478 6.5313 10.1645 6.92834C10.2935 7.36719 10.5701 7.68607 10.9432 7.8262C11.0723 7.8747 11.2085 7.89879 11.3469 7.89879C11.5304 7.89879 11.7178 7.85642 11.8974 7.77235C12.3318 7.56912 12.6867 7.14946 12.8713 6.62103V6.62101C13.0221 6.18919 13.041 5.73272 12.9242 5.33568Z" fill="#EC824A"/>
<path d="M2.78246 5.64249C2.59785 5.11403 2.24286 4.6944 1.80858 4.49117C1.49341 4.34368 1.15449 4.32459 0.854299 4.43732C0.48121 4.57748 0.20468 4.89636 0.0756706 5.33518C-0.0410501 5.73222 -0.0222356 6.18869 0.12861 6.62051V6.62053C0.313251 7.14899 0.668212 7.56862 1.10249 7.77184C1.28216 7.85591 1.46951 7.89829 1.65301 7.89829C1.79144 7.89829 1.92769 7.87417 2.05677 7.8257C2.42991 7.68554 2.70642 7.36666 2.83543 6.92784C2.9521 6.53083 2.93328 6.07436 2.78246 5.64249Z" fill="#EC824A"/>
</g>
<defs>
<clipPath id="clip0">
<rect width="13" height="13" fill="white"/>
</clipPath>
</defs>
</svg>

<svg width="13" height="13" viewBox="0 0 13 13" fill="none" xmlns="http://www.w3.org/2000/svg"><g clip-path="url(#clip0)" fill="#EC824A"><path d="M9.614 7.389C8.739 6.333 7.634 5.75 6.5 5.75c-1.132 0-2.238.582-3.113 1.638-.786.949-1.255 2.145-1.255 3.2 0 .512.156.902.465 1.16.305.254.708.34 1.157.34.477 0 1.008-.098 1.53-.194.455-.083.885-.162 1.216-.162.287 0 .69.075 1.117.154.999.186 2.13.396 2.784-.148.31-.258.468-.645.468-1.15 0-1.055-.47-2.251-1.255-3.2zm.089-5.735c-.32-.472-.778-.742-1.257-.742-.48 0-.938.27-1.258.742-.294.433-.456 1.003-.456 1.603 0 .6.162 1.17.456 1.603.32.471.779.742 1.258.742s.937-.27 1.257-.742c.294-.434.456-1.003.456-1.603 0-.6-.162-1.17-.456-1.603zm-3.891 0c-.32-.472-.778-.742-1.257-.742-.48 0-.937.27-1.257.742-.294.433-.456 1.003-.456 1.603 0 .6.162 1.17.456 1.603.32.471.778.742 1.257.742.479 0 .937-.27 1.257-.742.294-.434.456-1.003.456-1.603 0-.6-.162-1.17-.456-1.603zm7.112 3.682c-.129-.44-.405-.758-.778-.898-.3-.113-.64-.094-.955.054-.434.203-.789.623-.974 1.151-.15.432-.17.888-.053 1.285.13.44.406.758.78.898.128.049.264.073.403.073a1.3 1.3 0 00.55-.127c.435-.203.79-.623.974-1.151.151-.432.17-.888.053-1.285zm-10.142.306c-.184-.528-.54-.948-.973-1.15a1.224 1.224 0 00-.955-.055c-.373.14-.65.46-.778.898-.117.397-.098.854.053 1.286.184.528.54.948.973 1.15a1.3 1.3 0 00.551.127c.138 0 .275-.024.404-.072.373-.14.65-.46.778-.898a2.124 2.124 0 00-.053-1.286z"/></g><defs><clipPath id="clip0"><path fill="#fff" d="M0 0h13v13H0z"/></clipPath></defs></svg>
